;FLAVOR:Marlin
;TIME:1128
;Filament used: 0.0719107m
;Layer height: 0.08
;Generated with Cura_SteamEngine 2.0.0
T0
M190 S65
M104 S220
M109 S220
M82 ;absolute extrusion mode
;Sigma ProGen 2.2.0 (Build 22DI1226)

G21          ;metric values
G90          ;absolute positioning
M204 S2000 ;set default acceleration
M205 X15 Y15 ;set default jerk
M107         ;start with the fan off
G28 X0 Y0    ;move X/Y to min endstops
G28 Z0       ;move Z to min endstops
G1 Z5 F200   ;safety Z axis movement
T1           ;switch to the right extruder
G92 E0       ;zero the extruded length
T0           ;switch to the left extruder
G92 E0       ;zero the extruded length
M108 P1      ;enable layer fan for the idle extruder

G4 P1
G4 P2
G4 P3

;LAYER_COUNT:15
;LAYER:0
M107
M204 S1075
M205 X11.25 Y11.25
G0 F8400 X119.655 Y156.781 Z0.15
;TYPE:SKIRT
G1 F2100 X90.345 Y156.781 E0.20675
G1 X89.953 Y156.741 E0.20953
G1 X89.576 Y156.623 E0.21232
G1 X89.231 Y156.432 E0.2151
G1 X88.966 Y156.21 E0.21754
G1 X88.889 Y156.133 E0.21831
G1 X88.64 Y155.827 E0.22109
G1 X88.457 Y155.478 E0.22387
G1 X88.349 Y155.098 E0.22666
G1 X88.318 Y154.754 E0.22909
G1 X88.318 Y142.246 E0.31732
G1 X88.358 Y141.854 E0.3201
G1 X88.476 Y141.477 E0.32289
G1 X88.667 Y141.132 E0.32567
G1 X88.889 Y140.867 E0.32811
G1 X88.966 Y140.79 E0.32888
G1 X89.272 Y140.541 E0.33166
G1 X89.621 Y140.358 E0.33444
G1 X90.001 Y140.25 E0.33723
G1 X90.345 Y140.219 E0.33966
G1 X119.655 Y140.219 E0.54641
G1 X120.047 Y140.259 E0.54919
G1 X120.424 Y140.377 E0.55198
G1 X120.769 Y140.568 E0.55476
G1 X121.034 Y140.79 E0.5572
G1 X121.111 Y140.867 E0.55797
G1 X121.36 Y141.173 E0.56075
G1 X121.543 Y141.522 E0.56353
G1 X121.651 Y141.902 E0.56632
G1 X121.682 Y142.246 E0.56875
G1 X121.682 Y154.754 E0.65699
G1 X121.642 Y155.146 E0.65976
G1 X121.524 Y155.523 E0.66255
G1 X121.333 Y155.868 E0.66533
G1 X121.111 Y156.133 E0.66777
G1 X121.034 Y156.21 E0.66854
G1 X120.728 Y156.459 E0.67132
G1 X120.379 Y156.642 E0.6741
G1 X120.307 Y156.663 E0.67463
G0 F1890 X119.999 Y156.75
G0 X119.655 Y156.781
G0 F8400 X119.655 Y156.481
G1 F1200 E0.67933
G1 F2100 X90.345 Y156.481 E0.88608
G1 X89.984 Y156.441 E0.88864
G1 X89.641 Y156.323 E0.8912
G1 X89.332 Y156.134 E0.89376
G1 X89.178 Y155.998 E0.89521
G1 X89.101 Y155.921 E0.89597
G1 X88.875 Y155.638 E0.89853
G1 X88.715 Y155.312 E0.90109
G1 X88.631 Y154.959 E0.90365
G1 X88.618 Y154.754 E0.9051
G1 X88.618 Y142.246 E0.99333
G1 X88.658 Y141.885 E0.99589
G1 X88.776 Y141.542 E0.99845
G1 X88.965 Y141.233 E1.00101
G1 X89.101 Y141.079 E1.00245
G1 X89.178 Y141.002 E1.00322
G1 X89.461 Y140.776 E1.00578
G1 X89.787 Y140.616 E1.00834
G1 X90.14 Y140.532 E1.0109
G1 X90.345 Y140.519 E1.01235
G1 X119.655 Y140.519 E1.2191
G1 X120.016 Y140.559 E1.22166
G1 X120.359 Y140.677 E1.22422
G1 X120.668 Y140.866 E1.22678
G1 X120.822 Y141.002 E1.22822
G1 X120.899 Y141.079 E1.22899
G1 X121.125 Y141.362 E1.23155
G1 X121.285 Y141.688 E1.23411
G1 X121.369 Y142.041 E1.23667
G1 X121.382 Y142.246 E1.23812
G1 X121.382 Y154.754 E1.32635
G1 X121.342 Y155.115 E1.32891
G1 X121.224 Y155.458 E1.33147
G1 X121.035 Y155.767 E1.33402
G1 X120.899 Y155.921 E1.33547
G1 X120.822 Y155.998 E1.33624
G1 X120.539 Y156.224 E1.3388
G1 X120.301 Y156.341 E1.34067
G0 F1890 X120.213 Y156.384
G0 X119.86 Y156.468
G0 X119.655 Y156.481
G0 F8400 X119.655 Y156.181
G1 F1200 E1.34537
G1 F2100 X90.345 Y156.181 E1.55212
G1 X90.019 Y156.141 E1.55443
G1 X89.713 Y156.024 E1.55674
G1 X89.39 Y155.786 E1.55957
G1 X89.313 Y155.709 E1.56034
G1 X89.111 Y155.45 E1.56266
G1 X88.978 Y155.151 E1.56497
G1 X88.918 Y154.754 E1.5678
G1 X88.918 Y142.246 E1.65603
G1 X88.958 Y141.92 E1.65835
G1 X89.075 Y141.614 E1.66066
G1 X89.313 Y141.291 E1.66349
G1 X89.39 Y141.214 E1.66426
G1 X89.649 Y141.012 E1.66657
G1 X89.948 Y140.879 E1.66888
G1 X90.345 Y140.819 E1.67171
G1 X119.655 Y140.819 E1.87847
G1 X119.981 Y140.859 E1.88078
G1 X120.287 Y140.976 E1.88309
G1 X120.61 Y141.214 E1.88592
G1 X120.687 Y141.291 E1.88669
G1 X120.889 Y141.55 E1.88901
G1 X121.022 Y141.849 E1.89132
G1 X121.082 Y142.246 E1.89415
G1 X121.082 Y154.754 E1.98238
G1 X121.042 Y155.08 E1.9847
G1 X120.925 Y155.386 E1.98701
G1 X120.687 Y155.709 E1.98984
G1 X120.61 Y155.786 E1.99061
G1 X120.351 Y155.988 E1.99292
G1 X120.294 Y156.014 E1.99337
G0 F1890 X120.052 Y156.121
G0 X119.655 Y156.181
G0 F8400 X119.655 Y155.881
G1 F1200 E1.99806
G1 F2100 X90.345 Y155.881 E2.20481
G1 X90.059 Y155.841 E2.20685
G1 X89.794 Y155.725 E2.20889
G1 X89.603 Y155.573 E2.21061
G1 X89.526 Y155.496 E2.21138
G1 X89.351 Y155.266 E2.21342
G1 X89.246 Y154.996 E2.21546
G1 X89.218 Y154.754 E2.21718
G1 X89.218 Y142.246 E2.30541
G1 X89.258 Y141.96 E2.30745
G1 X89.374 Y141.695 E2.30949
G1 X89.526 Y141.504 E2.31121
G1 X89.603 Y141.427 E2.31198
G1 X89.833 Y141.252 E2.31402
G1 X90.103 Y141.147 E2.31606
G1 X90.345 Y141.119 E2.31778
G1 X119.655 Y141.119 E2.52453
G1 X119.941 Y141.159 E2.52657
G1 X120.206 Y141.275 E2.52861
G1 X120.397 Y141.427 E2.53033
G1 X120.474 Y141.504 E2.5311
G1 X120.649 Y141.734 E2.53314
G1 X120.754 Y142.004 E2.53518
G1 X120.782 Y142.246 E2.5369
G1 X120.782 Y154.754 E2.62513
G1 X120.742 Y155.04 E2.62717
G1 X120.626 Y155.305 E2.62921
G1 X120.474 Y155.496 E2.63093
G1 X120.397 Y155.573 E2.6317
G1 X120.273 Y155.667 E2.6328
G0 F1890 X120.167 Y155.748
G0 X119.897 Y155.853
G0 X119.655 Y155.881
G0 F8400 X119.655 Y155.581
G1 F1200 E2.6375
G1 F2100 X90.345 Y155.581 E2.84425
G1 X90.104 Y155.541 E2.84597
G1 X89.815 Y155.361 E2.84837
G1 X89.738 Y155.284 E2.84914
G1 X89.595 Y155.086 E2.85086
G1 X89.518 Y154.754 E2.85327
G1 X89.518 Y142.246 E2.9415
G1 X89.558 Y142.005 E2.94322
G1 X89.738 Y141.716 E2.94562
G1 X89.815 Y141.639 E2.94639
G1 X90.013 Y141.496 E2.94811
G1 X90.345 Y141.419 E2.95052
G1 X119.655 Y141.419 E3.15727
G1 X119.896 Y141.459 E3.15899
G1 X120.185 Y141.639 E3.1614
G1 X120.262 Y141.716 E3.16216
G1 X120.405 Y141.914 E3.16389
G1 X120.482 Y142.246 E3.16629
G1 X120.482 Y154.754 E3.25452
G1 X120.442 Y154.995 E3.25624
G1 X120.262 Y155.284 E3.25865
G1 X120.243 Y155.303 E3.25884
G0 F1890 X120.185 Y155.361
G0 X119.987 Y155.504
G0 X119.655 Y155.581
G0 F8400 X119.655 Y155.281
G1 F1200 E3.26353
G1 F2100 X90.345 Y155.281 E3.47029
G1 X90.161 Y155.241 E3.47161
G1 X90.027 Y155.149 E3.47276
G1 X89.95 Y155.072 E3.47353
G1 X89.847 Y154.914 E3.47486
G1 X89.818 Y154.754 E3.47601
G1 X89.818 Y142.246 E3.56424
G1 X89.858 Y142.062 E3.56556
G1 X89.95 Y141.928 E3.56671
G1 X90.027 Y141.851 E3.56748
G1 X90.185 Y141.748 E3.56881
G1 X90.345 Y141.719 E3.56996
G1 X119.655 Y141.719 E3.77671
G1 X119.839 Y141.759 E3.77804
G1 X119.973 Y141.851 E3.77918
G1 X120.05 Y141.928 E3.77995
G1 X120.153 Y142.086 E3.78128
G1 X120.182 Y142.246 E3.78243
G1 X120.182 Y154.754 E3.87066
G1 X120.151 Y154.893 E3.87166
G0 F1890 X120.142 Y154.938
G0 X120.05 Y155.072
G0 X119.973 Y155.149
G0 X119.815 Y155.252
G0 X119.655 Y155.281
G0 F8400 X119.655 Y154.981
G1 F1200 E3.87636
G1 F2100 X90.345 Y154.981 E4.08311
G1 X90.239 Y154.937 E4.08392
G1 X90.162 Y154.86 E4.08469
G1 X90.118 Y154.754 E4.0855
G1 X90.118 Y142.246 E4.17373
G1 X90.162 Y142.14 E4.17454
G1 X90.239 Y142.063 E4.17531
G1 X90.345 Y142.019 E4.17612
G1 X119.655 Y142.019 E4.38287
G1 X119.761 Y142.063 E4.38368
G1 X119.838 Y142.14 E4.38445
G1 X119.882 Y142.246 E4.38526
G1 X119.882 Y154.424 E4.47116
G0 F1890 X119.882 Y154.754
G0 X119.838 Y154.86
G0 X119.761 Y154.937
G0 X119.655 Y154.981
G1 F2400 E-1.52884
G0 F8400 X119.587 Y154.686
G0 X116.576 Y147.295
G0 X115.97 Y147.289
G0 X115.927 Y145.254
G0 X115.997 Y145.324
;TYPE:WALL-OUTER
G1 F1200 E4.48056
G1 F2100 X115.997 Y146.06 E4.4851
G1 X116.735 Y146.06 E4.48964
G1 X116.735 Y145.324 E4.49418
G1 X116.439 Y145.324 E4.496
G0 F1890 X115.997 Y145.324
G0 F8400 X115.997 Y146.06
G0 X116.511 Y146.06
G0 X116.511 Y146.16
G0 X115.969 Y146.088
G0 X115.566 Y145.295
G0 X114.732 Y145.253
G0 X114.802 Y145.323
G1 F1200 E4.49872
G1 F2100 X114.802 Y146.059 E4.50326
G1 X115.538 Y146.059 E4.50779
G1 X115.538 Y145.323 E4.51233
G1 X115.243 Y145.323 E4.51414
G0 F1890 X114.802 Y145.323
G0 F8400 X114.802 Y146.059
G0 X115.316 Y146.059
G0 X115.316 Y146.159
G0 X114.774 Y146.087
G0 X114.369 Y145.294
G0 X113.535 Y145.252
G0 X113.605 Y145.322
G1 F1200 E4.51686
G1 F2100 X113.605 Y146.058 E4.52139
G1 X114.341 Y146.058 E4.52593
G1 X114.341 Y145.322 E4.53046
G1 X114.046 Y145.322 E4.53228
G0 F1890 X113.605 Y145.322
G0 F8400 X113.605 Y146.058
G0 X114.119 Y146.058
G0 X114.119 Y146.158
G0 X113.577 Y146.086
G0 X113.172 Y145.292
G0 X112.338 Y145.25
G0 X112.408 Y145.32
G1 F1200 E4.535
G1 F2100 X112.408 Y146.056 E4.53953
G1 X113.144 Y146.056 E4.54406
G1 X113.144 Y145.32 E4.5486
G1 X112.849 Y145.32 E4.55042
G0 F1890 X112.408 Y145.32
G0 F8400 X112.408 Y146.056
G0 X112.922 Y146.056
G0 X112.922 Y146.156
G0 X112.38 Y146.084
G0 X111.975 Y145.291
G0 X111.141 Y145.249
G0 X111.211 Y145.319
G1 F1200 E4.55313
G1 F2100 X111.211 Y146.055 E4.55767
G1 X111.947 Y146.055 E4.5622
G1 X111.947 Y145.319 E4.56673
G1 X111.652 Y145.319 E4.56855
G0 F1890 X111.211 Y145.319
G0 F8400 X111.211 Y146.055
G0 X111.725 Y146.055
G0 X111.725 Y146.155
G0 X111.183 Y146.083
G0 X110.778 Y145.29
G0 X109.944 Y145.248
G0 X110.014 Y145.318
G1 F1200 E4.57127
G1 F2100 X110.014 Y146.054 E4.5758
G1 X110.75 Y146.054 E4.58034
G1 X110.75 Y145.318 E4.58487
G1 X110.455 Y145.318 E4.58669
G0 F1890 X110.014 Y145.318
G0 F8400 X110.014 Y146.054
G0 X110.528 Y146.054
G0 X110.528 Y146.154
G0 X109.986 Y146.082
G0 X109.581 Y145.289
G0 X108.747 Y145.247
G0 X108.817 Y145.317
G1 F1200 E4.5894
G1 F2100 X108.817 Y146.053 E4.59394
G1 X109.553 Y146.053 E4.59847
G1 X109.553 Y145.317 E4.60301
G1 X109.258 Y145.317 E4.60482
G0 F1890 X108.817 Y145.317
G0 F8400 X108.817 Y146.053
G0 X109.331 Y146.053
G0 X109.331 Y146.153
G0 X108.789 Y146.081
G0 X108.384 Y145.288
G0 X107.55 Y145.246
G0 X107.62 Y145.316
G1 F1200 E4.60754
G1 F2100 X107.62 Y146.052 E4.61208
G1 X108.356 Y146.052 E4.61661
G1 X108.356 Y145.316 E4.62114
G1 X108.061 Y145.316 E4.62296
G0 F1890 X107.62 Y145.316
G0 F8400 X107.62 Y146.052
G0 X108.134 Y146.052
G0 X108.134 Y146.152
G0 X107.592 Y146.08
G0 X107.187 Y145.287
G0 X106.353 Y145.245
G0 X106.423 Y145.315
G1 F1200 E4.62568
G1 F2100 X106.423 Y146.051 E4.63021
G1 X107.159 Y146.051 E4.63475
G1 X107.159 Y145.315 E4.63928
G1 X106.864 Y145.315 E4.6411
G0 F1890 X106.423 Y145.315
G0 F8400 X106.423 Y146.051
G0 X106.937 Y146.051
G0 X106.937 Y146.151
G0 X106.395 Y146.079
G0 X105.99 Y145.286
G0 X105.156 Y145.244
G0 X105.226 Y145.314
G1 F1200 E4.64381
G1 F2100 X105.226 Y146.05 E4.64835
G1 X105.962 Y146.05 E4.65288
G1 X105.962 Y145.314 E4.65742
G1 X105.667 Y145.314 E4.65923
G0 F1890 X105.226 Y145.314
G0 F8400 X105.226 Y146.05
G0 X105.74 Y146.05
G0 X105.74 Y146.15
G0 X105.198 Y146.078
G0 X104.793 Y145.285
G0 X103.959 Y145.243
G0 X104.029 Y145.313
G1 F1200 E4.66195
G1 F2100 X104.029 Y146.049 E4.66648
G1 X104.765 Y146.049 E4.67102
G1 X104.765 Y145.313 E4.67555
G1 X104.47 Y145.313 E4.67737
G0 F1890 X104.029 Y145.313
G0 F8400 X104.029 Y146.049
G0 X104.543 Y146.049
G0 X104.543 Y146.149
G0 X104.001 Y146.077
G0 X103.597 Y145.284
G0 X102.763 Y145.242
G0 X102.833 Y145.312
G1 F1200 E4.68009
G1 F2100 X102.833 Y146.048 E4.68462
G1 X103.569 Y146.048 E4.68915
G1 X103.569 Y145.312 E4.69369
G1 X103.274 Y145.312 E4.69551
G0 F1890 X102.833 Y145.312
G0 F8400 X102.833 Y146.048
G0 X103.347 Y146.048
G0 X103.347 Y146.148
G0 X102.805 Y146.076
G0 X102.4 Y145.283
G0 X101.566 Y145.241
G0 X101.636 Y145.311
G1 F1200 E4.69822
G1 F2100 X101.636 Y146.047 E4.70276
G1 X102.372 Y146.047 E4.70729
G1 X102.372 Y145.311 E4.71183
G1 X102.077 Y145.311 E4.71364
G0 F1890 X101.636 Y145.311
G0 F8400 X101.636 Y146.047
G0 X102.15 Y146.047
G0 X102.15 Y146.147
G0 X101.608 Y146.075
G0 X101.203 Y145.282
G0 X100.369 Y145.24
G0 X100.439 Y145.31
G1 F1200 E4.71636
G1 F2100 X100.439 Y146.046 E4.72089
G1 X101.175 Y146.046 E4.72543
G1 X101.175 Y145.31 E4.72996
G1 X100.88 Y145.31 E4.73178
G0 F1890 X100.439 Y145.31
G0 F8400 X100.439 Y146.046
G0 X100.953 Y146.046
G0 X100.953 Y146.146
G0 X100.411 Y146.074
G0 X100.006 Y145.281
G0 X99.172 Y145.239
G0 X99.242 Y145.309
G1 F1200 E4.7345
G1 F2100 X99.242 Y146.045 E4.73903
G1 X99.978 Y146.045 E4.74356
G1 X99.978 Y145.309 E4.7481
G1 X99.683 Y145.309 E4.74992
G0 F1890 X99.242 Y145.309
G0 F8400 X99.242 Y146.045
G0 X99.756 Y146.045
G0 X99.756 Y146.145
G0 X99.214 Y146.073
G0 X98.809 Y145.28
G0 X97.975 Y145.238
G0 X98.045 Y145.308
G1 F1200 E4.75263
G1 F2100 X98.045 Y146.044 E4.75717
G1 X98.781 Y146.044 E4.7617
G1 X98.781 Y145.308 E4.76623
G1 X98.486 Y145.308 E4.76805
G0 F1890 X98.045 Y145.308
G0 F8400 X98.045 Y146.044
G0 X98.559 Y146.044
G0 X98.559 Y146.144
G0 X98.017 Y146.072
G0 X97.612 Y145.279
G0 X96.778 Y145.237
G0 X96.848 Y145.307
G1 F1200 E4.77077
G1 F2100 X96.848 Y146.043 E4.7753
G1 X97.584 Y146.043 E4.77984
G1 X97.584 Y145.307 E4.78437
G1 X97.289 Y145.307 E4.78619
G0 F1890 X96.848 Y145.307
G0 F8400 X96.848 Y146.043
G0 X97.362 Y146.043
G0 X97.362 Y146.143
G0 X96.82 Y146.071
G0 X96.415 Y145.278
G0 X95.581 Y145.236
G0 X95.651 Y145.306
G1 F1200 E4.7889
G1 F2100 X95.651 Y146.042 E4.79344
G1 X96.387 Y146.042 E4.79797
G1 X96.387 Y145.306 E4.80251
G1 X96.092 Y145.306 E4.80432
G0 F1890 X95.651 Y145.306
G0 F8400 X95.651 Y146.042
G0 X96.165 Y146.042
G0 X96.165 Y146.142
G0 X95.623 Y146.07
G0 X95.218 Y145.277
G0 X94.384 Y145.235
G0 X94.454 Y145.305
G1 F1200 E4.80704
G1 F2100 X94.454 Y146.041 E4.81158
G1 X95.19 Y146.041 E4.81611
G1 X95.19 Y145.305 E4.82064
G1 X94.895 Y145.305 E4.82246
G0 F1890 X94.454 Y145.305
G0 F8400 X94.454 Y146.041
G0 X94.968 Y146.041
G0 X94.968 Y146.141
G0 X94.426 Y146.069
G0 X94.021 Y145.276
G0 X93.187 Y145.234
G0 X93.257 Y145.304
G1 F1200 E4.82518
G1 F2100 X93.257 Y146.04 E4.82971
G1 X93.993 Y146.04 E4.83425
G1 X93.993 Y145.304 E4.83878
G1 X93.698 Y145.304 E4.8406
G0 F1890 X93.257 Y145.304
G0 F8400 X93.257 Y146.04
G0 X93.771 Y146.04
G0 X93.258 Y146.505
G1 F1200 E4.84331
G1 F2100 X93.258 Y147.241 E4.84785
G1 X93.994 Y147.241 E4.85238
G1 X93.994 Y146.505 E4.85692
G1 X93.699 Y146.505 E4.85873
G0 F1890 X93.258 Y146.505
G0 F8400 X93.258 Y147.241
G0 X93.772 Y147.241
G0 X94.455 Y146.506
G1 F1200 E4.86145
G1 F2100 X94.455 Y147.242 E4.86598
G1 X95.191 Y147.242 E4.87052
G1 X95.191 Y146.506 E4.87505
G1 X94.896 Y146.506 E4.87687
G0 F1890 X94.455 Y146.506
G0 F8400 X94.455 Y147.242
G0 X94.969 Y147.242
G0 X95.651 Y146.507
G1 F1200 E4.87959
G1 F2100 X95.651 Y147.243 E4.88412
G1 X96.387 Y147.243 E4.88866
G1 X96.387 Y146.507 E4.89319
G1 X96.092 Y146.507 E4.89501
G0 F1890 X95.651 Y146.507
G0 F8400 X95.651 Y147.243
G0 X96.165 Y147.243
G0 X96.848 Y146.508
G1 F1200 E4.89772
G1 F2100 X96.848 Y147.244 E4.90226
G1 X97.584 Y147.244 E4.90679
G1 X97.584 Y146.508 E4.91133
G1 X97.289 Y146.508 E4.91314
G0 F1890 X96.848 Y146.508
G0 F8400 X96.848 Y147.244
G0 X97.362 Y147.244
G0 X98.045 Y146.509
G1 F1200 E4.91586
G1 F2100 X98.045 Y147.245 E4.92039
G1 X98.781 Y147.245 E4.92493
G1 X98.781 Y146.509 E4.92946
G1 X98.486 Y146.509 E4.93128
G0 F1890 X98.045 Y146.509
G0 F8400 X98.045 Y147.245
G0 X98.559 Y147.245
G0 X99.242 Y146.51
G1 F1200 E4.934
G1 F2100 X99.242 Y147.246 E4.93853
G1 X99.978 Y147.246 E4.94306
G1 X99.978 Y146.51 E4.9476
G1 X99.683 Y146.51 E4.94942
G0 F1890 X99.242 Y146.51
G0 F8400 X99.242 Y147.246
G0 X99.756 Y147.246
G0 X100.439 Y146.511
G1 F1200 E4.95213
G1 F2100 X100.439 Y147.247 E4.95667
G1 X101.175 Y147.247 E4.9612
G1 X101.175 Y146.511 E4.96573
G1 X100.88 Y146.511 E4.96755
G0 F1890 X100.439 Y146.511
G0 F8400 X100.439 Y147.247
G0 X100.953 Y147.247
G0 X101.636 Y146.512
G1 F1200 E4.97027
G1 F2100 X101.636 Y147.248 E4.9748
G1 X102.372 Y147.248 E4.97934
G1 X102.372 Y146.512 E4.98387
G1 X102.077 Y146.512 E4.98569
G0 F1890 X101.636 Y146.512
G0 F8400 X101.636 Y147.248
G0 X102.15 Y147.248
G0 X102.833 Y146.513
G1 F1200 E4.98841
G1 F2100 X102.833 Y147.249 E4.99294
G1 X103.569 Y147.249 E4.99747
G1 X103.569 Y146.513 E5.00201
G1 X103.274 Y146.513 E5.00382
G0 F1890 X102.833 Y146.513
G0 F8400 X102.833 Y147.249
G0 X103.347 Y147.249
G0 X104.03 Y146.514
G1 F1200 E5.00654
G1 F2100 X104.03 Y147.25 E5.01108
G1 X104.766 Y147.25 E5.01561
G1 X104.766 Y146.514 E5.02014
G1 X104.471 Y146.514 E5.02196
G0 F1890 X104.03 Y146.514
G0 F8400 X104.03 Y147.25
