;FLAVOR:Marlin
;TIME:437
;Filament used: 0.0308699m
;Layer height: 0.08
;Generated with Cura_SteamEngine 2.0.0
T0
M190 S65
M104 S220
M109 S220
M82 ;absolute extrusion mode
;Sigma ProGen 2.2.0 (Build 22DI1226)

G21          ;metric values
G90          ;absolute positioning
M204 S2000 ;set default acceleration
M205 X15 Y15 ;set default jerk
M107         ;start with the fan off
G28 X0 Y0    ;move X/Y to min endstops
G28 Z0       ;move Z to min endstops
G1 Z5 F200   ;safety Z axis movement
T1           ;switch to the right extruder
G92 E0       ;zero the extruded length
T0           ;switch to the left extruder
G92 E0       ;zero the extruded length
M108 P1      ;enable layer fan for the idle extruder

G4 P1
G4 P2
G4 P3

;LAYER_COUNT:25
;LAYER:0
M107
M204 S1075
M205 X11.25 Y11.25
G0 F8400 X108.886 Y160.413 Z0.15
;TYPE:SKIRT
G1 F2100 X101.114 Y160.413 E0.05482
G1 X100.318 Y160.373 E0.06045
G1 X99.53 Y160.254 E0.06607
G1 X98.757 Y160.056 E0.0717
G1 X98.009 Y159.781 E0.07732
G1 X97.291 Y159.434 E0.08294
G1 X96.612 Y159.016 E0.08857
G1 X95.979 Y158.532 E0.09419
G1 X95.493 Y158.084 E0.09885
G1 X95.416 Y158.007 E0.09962
G1 X94.881 Y157.416 E0.10524
G1 X94.408 Y156.774 E0.11087
G1 X94.002 Y156.088 E0.11649
G1 X93.666 Y155.365 E0.12211
G1 X93.405 Y154.612 E0.12774
G1 X93.22 Y153.836 E0.13336
G1 X93.114 Y153.046 E0.13899
G1 X93.087 Y152.386 E0.14364
G1 X93.087 Y144.614 E0.19847
G1 X93.127 Y143.818 E0.20409
G1 X93.246 Y143.03 E0.20971
G1 X93.444 Y142.257 E0.21534
G1 X93.719 Y141.509 E0.22096
G1 X94.066 Y140.791 E0.22659
G1 X94.484 Y140.112 E0.23221
G1 X94.968 Y139.479 E0.23783
G1 X95.416 Y138.993 E0.2425
G1 X95.493 Y138.916 E0.24326
G1 X96.084 Y138.381 E0.24889
G1 X96.726 Y137.908 E0.25451
G1 X97.412 Y137.502 E0.26013
G1 X98.135 Y137.166 E0.26576
G1 X98.888 Y136.905 E0.27138
G1 X99.664 Y136.72 E0.27701
G1 X100.454 Y136.614 E0.28263
G1 X101.114 Y136.587 E0.28729
G1 X108.886 Y136.587 E0.34211
G1 X109.682 Y136.627 E0.34773
G1 X110.47 Y136.746 E0.35336
G1 X111.243 Y136.944 E0.35899
G1 X111.991 Y137.219 E0.36461
G1 X112.709 Y137.566 E0.37023
G1 X113.388 Y137.984 E0.37586
G1 X114.021 Y138.468 E0.38148
G1 X114.507 Y138.916 E0.38614
G1 X114.584 Y138.993 E0.38691
G1 X115.119 Y139.584 E0.39253
G1 X115.592 Y140.226 E0.39816
G1 X115.998 Y140.912 E0.40378
G1 X116.334 Y141.635 E0.4094
G1 X116.595 Y142.388 E0.41502
G1 X116.78 Y143.164 E0.42065
G1 X116.886 Y143.954 E0.42627
G1 X116.913 Y144.614 E0.43093
G1 X116.913 Y152.386 E0.48576
G1 X116.873 Y153.182 E0.49138
G1 X116.754 Y153.97 E0.497
G1 X116.556 Y154.743 E0.50263
G1 X116.281 Y155.491 E0.50825
G1 X115.934 Y156.209 E0.51388
G1 X115.516 Y156.888 E0.5195
G1 X115.032 Y157.521 E0.52512
G1 X114.584 Y158.007 E0.52978
G1 X114.507 Y158.084 E0.53055
G1 X113.916 Y158.619 E0.53618
G1 X113.274 Y159.092 E0.5418
G1 X112.588 Y159.498 E0.54742
G1 X111.865 Y159.834 E0.55305
G1 X111.112 Y160.095 E0.55867
G1 X110.336 Y160.28 E0.5643
G1 X109.551 Y160.386 E0.56988
G0 F1890 X109.546 Y160.386
G0 X108.886 Y160.413
G0 F8400 X108.886 Y160.113
G1 F1200 E0.57458
G1 F2100 X101.114 Y160.113 E0.62941
G1 X100.333 Y160.073 E0.63492
G1 X99.56 Y159.954 E0.64044
G1 X98.803 Y159.756 E0.64596
G1 X98.071 Y159.482 E0.65147
G1 X97.37 Y159.134 E0.65699
G1 X96.709 Y158.717 E0.66251
G1 X96.093 Y158.235 E0.66802
G1 X95.705 Y157.872 E0.67177
G1 X95.628 Y157.795 E0.67254
G1 X95.104 Y157.215 E0.67805
G1 X94.642 Y156.584 E0.68357
G1 X94.246 Y155.909 E0.68909
G1 X93.922 Y155.197 E0.69461
G1 X93.672 Y154.456 E0.70012
G1 X93.5 Y153.694 E0.70563
G1 X93.405 Y152.917 E0.71116
G1 X93.387 Y152.386 E0.7149
G1 X93.387 Y144.614 E0.76973
G1 X93.427 Y143.833 E0.77524
G1 X93.546 Y143.06 E0.78076
G1 X93.744 Y142.303 E0.78628
G1 X94.018 Y141.571 E0.79179
G1 X94.366 Y140.87 E0.79731
G1 X94.783 Y140.209 E0.80283
G1 X95.265 Y139.593 E0.80834
G1 X95.628 Y139.205 E0.81209
G1 X95.705 Y139.128 E0.81286
G1 X96.285 Y138.604 E0.81837
G1 X96.916 Y138.142 E0.82389
G1 X97.591 Y137.746 E0.82941
G1 X98.303 Y137.422 E0.83493
G1 X99.044 Y137.172 E0.84045
G1 X99.806 Y137 E0.84596
G1 X100.583 Y136.905 E0.85148
G1 X101.114 Y136.887 E0.85523
G1 X108.886 Y136.887 E0.91005
G1 X109.667 Y136.927 E0.91557
G1 X110.44 Y137.046 E0.92108
G1 X111.197 Y137.244 E0.9266
G1 X111.929 Y137.518 E0.93212
G1 X112.63 Y137.866 E0.93764
G1 X113.291 Y138.283 E0.94315
G1 X113.907 Y138.765 E0.94867
G1 X114.295 Y139.128 E0.95241
G1 X114.372 Y139.205 E0.95318
G1 X114.896 Y139.785 E0.9587
G1 X115.358 Y140.416 E0.96421
G1 X115.754 Y141.091 E0.96973
G1 X116.078 Y141.803 E0.97525
G1 X116.328 Y142.544 E0.98077
G1 X116.5 Y143.306 E0.98628
G1 X116.595 Y144.083 E0.9918
G1 X116.613 Y144.614 E0.99555
G1 X116.613 Y152.386 E1.05037
G1 X116.573 Y153.167 E1.05589
G1 X116.454 Y153.94 E1.0614
G1 X116.256 Y154.697 E1.06692
G1 X115.982 Y155.429 E1.07244
G1 X115.634 Y156.13 E1.07796
G1 X115.217 Y156.791 E1.08347
G1 X114.735 Y157.407 E1.08899
G1 X114.372 Y157.795 E1.09274
G1 X114.295 Y157.872 E1.0935
G1 X113.715 Y158.396 E1.09902
G1 X113.084 Y158.858 E1.10453
G1 X112.409 Y159.254 E1.11005
G1 X111.697 Y159.578 E1.11557
G1 X110.956 Y159.828 E1.12109
G1 X110.194 Y160 E1.1266
G1 X109.551 Y160.079 E1.13117
G0 F1890 X109.417 Y160.095
G0 X108.886 Y160.113
G0 F8400 X108.886 Y159.813
G1 F1200 E1.13587
G1 F2100 X101.114 Y159.813 E1.19069
G1 X100.348 Y159.773 E1.1961
G1 X99.591 Y159.654 E1.20151
G1 X98.851 Y159.456 E1.20691
G1 X98.135 Y159.182 E1.21232
G1 X97.451 Y158.835 E1.21773
G1 X96.807 Y158.419 E1.22314
G1 X96.21 Y157.938 E1.22854
G1 X95.917 Y157.66 E1.23139
G1 X95.84 Y157.583 E1.23216
G1 X95.327 Y157.014 E1.23757
G1 X94.876 Y156.394 E1.24297
G1 X94.492 Y155.73 E1.24838
G1 X94.179 Y155.03 E1.25379
G1 X93.941 Y154.302 E1.2592
G1 X93.78 Y153.552 E1.26461
G1 X93.698 Y152.79 E1.27001
G1 X93.687 Y152.386 E1.27286
G1 X93.687 Y144.614 E1.32769
G1 X93.727 Y143.848 E1.3331
G1 X93.846 Y143.091 E1.3385
G1 X94.044 Y142.351 E1.34391
G1 X94.318 Y141.635 E1.34931
G1 X94.665 Y140.951 E1.35473
G1 X95.081 Y140.307 E1.36013
G1 X95.562 Y139.71 E1.36554
G1 X95.84 Y139.417 E1.36839
G1 X95.917 Y139.34 E1.36916
G1 X96.486 Y138.827 E1.37456
G1 X97.106 Y138.376 E1.37997
G1 X97.77 Y137.992 E1.38538
G1 X98.47 Y137.679 E1.39079
G1 X99.198 Y137.441 E1.39619
G1 X99.948 Y137.28 E1.4016
G1 X100.71 Y137.198 E1.40701
G1 X101.114 Y137.187 E1.40986
G1 X108.886 Y137.187 E1.46468
G1 X109.652 Y137.227 E1.47009
G1 X110.409 Y137.346 E1.4755
G1 X111.149 Y137.544 E1.4809
G1 X111.865 Y137.818 E1.48631
G1 X112.549 Y138.165 E1.49172
G1 X113.193 Y138.581 E1.49713
G1 X113.79 Y139.062 E1.50254
G1 X114.083 Y139.34 E1.50539
G1 X114.16 Y139.417 E1.50616
G1 X114.673 Y139.986 E1.51156
G1 X115.124 Y140.606 E1.51697
G1 X115.508 Y141.27 E1.52238
G1 X115.821 Y141.97 E1.52779
G1 X116.059 Y142.698 E1.53319
G1 X116.22 Y143.448 E1.5386
G1 X116.302 Y144.21 E1.54401
G1 X116.313 Y144.614 E1.54686
G1 X116.313 Y152.386 E1.60168
G1 X116.273 Y153.152 E1.60709
G1 X116.154 Y153.909 E1.6125
G1 X115.956 Y154.649 E1.6179
G1 X115.682 Y155.365 E1.62331
G1 X115.335 Y156.049 E1.62872
G1 X114.919 Y156.693 E1.63413
G1 X114.438 Y157.29 E1.63954
G1 X114.16 Y157.583 E1.64238
G1 X114.083 Y157.66 E1.64315
G1 X113.514 Y158.173 E1.64856
G1 X112.894 Y158.624 E1.65396
G1 X112.23 Y159.008 E1.65938
G1 X111.53 Y159.321 E1.66478
G1 X110.802 Y159.559 E1.67019
G1 X110.052 Y159.72 E1.6756
G1 X109.55 Y159.774 E1.67916
G0 F1890 X109.29 Y159.802
G0 X108.886 Y159.813
G0 F8400 X108.886 Y159.513
G1 F1200 E1.68386
G1 F2100 X101.114 Y159.513 E1.73868
G1 X100.364 Y159.473 E1.74398
G1 X99.623 Y159.354 E1.74927
G1 X98.899 Y159.156 E1.75457
G1 X98.2 Y158.882 E1.75986
G1 X97.534 Y158.536 E1.76516
G1 X96.908 Y158.121 E1.77046
G1 X96.129 Y157.448 E1.77772
G1 X96.052 Y157.371 E1.77849
G1 X95.55 Y156.813 E1.78378
G1 X95.11 Y156.204 E1.78908
G1 X94.738 Y155.552 E1.79437
G1 X94.437 Y154.865 E1.79967
G1 X94.211 Y154.149 E1.80496
G1 X94.062 Y153.413 E1.81026
G1 X93.987 Y152.386 E1.81752
G1 X93.987 Y144.614 E1.87235
G1 X94.027 Y143.864 E1.87764
G1 X94.146 Y143.123 E1.88294
G1 X94.344 Y142.399 E1.88823
G1 X94.618 Y141.7 E1.89353
G1 X94.964 Y141.034 E1.89882
G1 X95.379 Y140.408 E1.90412
G1 X96.052 Y139.629 E1.91138
G1 X96.129 Y139.552 E1.91215
G1 X96.687 Y139.05 E1.91744
G1 X97.296 Y138.61 E1.92274
G1 X97.948 Y138.238 E1.92804
G1 X98.635 Y137.937 E1.93333
G1 X99.351 Y137.711 E1.93863
G1 X100.087 Y137.562 E1.94392
G1 X101.114 Y137.487 E1.95119
G1 X108.886 Y137.487 E2.00601
G1 X109.636 Y137.527 E2.01131
G1 X110.377 Y137.646 E2.0166
G1 X111.101 Y137.844 E2.0219
G1 X111.8 Y138.118 E2.02719
G1 X112.466 Y138.464 E2.03249
G1 X113.092 Y138.879 E2.03779
G1 X113.871 Y139.552 E2.04505
G1 X113.948 Y139.629 E2.04582
G1 X114.45 Y140.187 E2.05111
G1 X114.89 Y140.796 E2.05641
G1 X115.262 Y141.448 E2.0617
G1 X115.563 Y142.135 E2.067
G1 X115.789 Y142.851 E2.07229
G1 X115.938 Y143.587 E2.07759
G1 X116.013 Y144.614 E2.08485
G1 X116.013 Y152.386 E2.13968
G1 X115.973 Y153.136 E2.14497
G1 X115.854 Y153.877 E2.15027
G1 X115.656 Y154.601 E2.15556
G1 X115.382 Y155.3 E2.16086
G1 X115.036 Y155.966 E2.16615
G1 X114.621 Y156.592 E2.17145
G1 X113.948 Y157.371 E2.17871
G1 X113.871 Y157.448 E2.17948
G1 X113.313 Y157.95 E2.18478
G1 X112.704 Y158.39 E2.19007
G1 X112.052 Y158.762 E2.19537
G1 X111.365 Y159.063 E2.20066
G1 X110.649 Y159.289 E2.20596
G1 X109.913 Y159.438 E2.21125
G1 X109.55 Y159.465 E2.21382
G0 F1890 X108.886 Y159.513
G0 F8400 X108.886 Y159.213
G1 F1200 E2.21852
G1 F2100 X101.114 Y159.213 E2.27334
G1 X100.381 Y159.173 E2.27852
G1 X99.656 Y159.054 E2.2837
G1 X98.948 Y158.856 E2.28889
G1 X98.266 Y158.583 E2.29407
G1 X97.618 Y158.237 E2.29925
G1 X97.011 Y157.823 E2.30444
G1 X96.341 Y157.236 E2.31072
G1 X96.264 Y157.159 E2.31149
G1 X95.774 Y156.612 E2.31667
G1 X95.346 Y156.015 E2.32185
G1 X94.985 Y155.375 E2.32703
G1 X94.696 Y154.7 E2.33221
G1 X94.482 Y153.997 E2.3374
G1 X94.346 Y153.275 E2.34258
G1 X94.287 Y152.386 E2.34886
G1 X94.287 Y144.614 E2.40369
G1 X94.327 Y143.881 E2.40886
G1 X94.446 Y143.156 E2.41405
G1 X94.644 Y142.448 E2.41923
G1 X94.917 Y141.766 E2.42442
G1 X95.263 Y141.118 E2.4296
G1 X95.677 Y140.511 E2.43478
G1 X96.264 Y139.841 E2.44106
G1 X96.341 Y139.764 E2.44183
G1 X96.888 Y139.274 E2.44701
G1 X97.485 Y138.846 E2.45219
G1 X98.125 Y138.485 E2.45738
G1 X98.8 Y138.196 E2.46256
G1 X99.503 Y137.982 E2.46774
G1 X100.225 Y137.846 E2.47292
G1 X101.114 Y137.787 E2.47921
G1 X108.886 Y137.787 E2.53403
G1 X109.619 Y137.827 E2.53921
G1 X110.344 Y137.946 E2.54439
G1 X111.052 Y138.144 E2.54958
G1 X111.734 Y138.417 E2.55476
G1 X112.382 Y138.763 E2.55994
G1 X112.989 Y139.177 E2.56512
G1 X113.659 Y139.764 E2.57141
G1 X113.736 Y139.841 E2.57217
G1 X114.226 Y140.388 E2.57736
G1 X114.654 Y140.985 E2.58254
G1 X115.015 Y141.625 E2.58772
G1 X115.304 Y142.3 E2.5929
G1 X115.518 Y143.003 E2.59808
G1 X115.654 Y143.725 E2.60327
G1 X115.713 Y144.614 E2.60955
G1 X115.713 Y152.386 E2.66437
G1 X115.673 Y153.119 E2.66955
G1 X115.554 Y153.844 E2.67473
G1 X115.356 Y154.552 E2.67992
G1 X115.083 Y155.234 E2.6851
G1 X114.737 Y155.882 E2.69028
G1 X114.323 Y156.489 E2.69547
G1 X113.736 Y157.159 E2.70175
G1 X113.659 Y157.236 E2.70252
G1 X113.112 Y157.726 E2.7077
G1 X112.515 Y158.154 E2.71288
G1 X111.875 Y158.515 E2.71806
G1 X111.2 Y158.804 E2.72324
G1 X110.497 Y159.018 E2.72843
G1 X109.775 Y159.154 E2.73361
G1 X109.551 Y159.169 E2.73519
G0 F1890 X108.886 Y159.213
G0 F8400 X108.886 Y158.913
G1 F1200 E2.73989
G1 F2100 X101.114 Y158.913 E2.79471
G1 X100.397 Y158.873 E2.79978
G1 X99.689 Y158.754 E2.80484
G1 X98.999 Y158.556 E2.80991
G1 X98.334 Y158.283 E2.81498
G1 X97.705 Y157.938 E2.82004
G1 X97.117 Y157.525 E2.82511
G1 X96.553 Y157.024 E2.83043
G1 X96.476 Y156.947 E2.8312
G1 X95.997 Y156.412 E2.83626
G1 X95.581 Y155.827 E2.84133
G1 X95.233 Y155.199 E2.84639
G1 X94.956 Y154.536 E2.85146
G1 X94.755 Y153.847 E2.85652
G1 X94.631 Y153.14 E2.86159
G1 X94.587 Y152.386 E2.86691
G1 X94.587 Y144.614 E2.92174
G1 X94.627 Y143.897 E2.9268
G1 X94.746 Y143.189 E2.93187
G1 X94.944 Y142.499 E2.93693
G1 X95.217 Y141.834 E2.942
G1 X95.562 Y141.205 E2.94706
G1 X95.975 Y140.617 E2.95213
G1 X96.476 Y140.053 E2.95745
G1 X96.553 Y139.976 E2.95822
G1 X97.088 Y139.497 E2.96328
G1 X97.673 Y139.081 E2.96835
G1 X98.301 Y138.733 E2.97341
G1 X98.964 Y138.456 E2.97848
G1 X99.653 Y138.255 E2.98354
G1 X100.36 Y138.131 E2.98861
G1 X101.114 Y138.087 E2.99394
G1 X108.886 Y138.087 E3.04876
G1 X109.603 Y138.127 E3.05382
G1 X110.311 Y138.246 E3.05889
G1 X111.001 Y138.444 E3.06395
G1 X111.666 Y138.717 E3.06902
G1 X112.295 Y139.062 E3.07408
G1 X112.883 Y139.475 E3.07915
G1 X113.447 Y139.976 E3.08447
G1 X113.524 Y140.053 E3.08524
G1 X114.003 Y140.588 E3.09031
G1 X114.419 Y141.173 E3.09537
G1 X114.767 Y141.801 E3.10043
G1 X115.044 Y142.464 E3.1055
G1 X115.245 Y143.153 E3.11057
G1 X115.369 Y143.86 E3.11563
G1 X115.413 Y144.614 E3.12096
G1 X115.413 Y152.386 E3.17578
G1 X115.373 Y153.103 E3.18085
G1 X115.254 Y153.811 E3.18591
G1 X115.056 Y154.501 E3.19097
G1 X114.783 Y155.166 E3.19604
G1 X114.438 Y155.795 E3.20111
G1 X114.025 Y156.383 E3.20617
G1 X113.524 Y156.947 E3.2115
G1 X113.447 Y157.024 E3.21226
G1 X112.912 Y157.503 E3.21733
G1 X112.327 Y157.919 E3.22239
G1 X111.699 Y158.267 E3.22746
G1 X111.036 Y158.544 E3.23253
G1 X110.347 Y158.745 E3.23759
G1 X109.64 Y158.869 E3.24265
G1 X109.551 Y158.875 E3.24328
G0 F1890 X108.886 Y158.913
G0 F8400 X108.886 Y158.613
G1 F1200 E3.24798
G1 F2100 X101.114 Y158.613 E3.3028
G1 X100.414 Y158.573 E3.30775
G1 X99.723 Y158.454 E3.31269
G1 X99.05 Y158.256 E3.31764
G1 X98.404 Y157.984 E3.32259
G1 X97.793 Y157.64 E3.32753
G1 X97.226 Y157.228 E3.33248
G1 X96.765 Y156.812 E3.33686
G1 X96.688 Y156.735 E3.33763
G1 X96.222 Y156.211 E3.34257
G1 X95.817 Y155.639 E3.34752
G1 X95.481 Y155.023 E3.35247
G1 X95.217 Y154.374 E3.35741
G1 X95.029 Y153.698 E3.36236
G1 X94.918 Y153.006 E3.3673
G1 X94.887 Y152.386 E3.37168
G1 X94.887 Y144.614 E3.4265
G1 X94.927 Y143.914 E3.43145
G1 X95.046 Y143.223 E3.43639
G1 X95.244 Y142.55 E3.44134
G1 X95.516 Y141.904 E3.44629
G1 X95.86 Y141.293 E3.45123
G1 X96.272 Y140.726 E3.45618
G1 X96.688 Y140.265 E3.46056
G1 X96.765 Y140.188 E3.46133
G1 X97.289 Y139.722 E3.46627
G1 X97.861 Y139.317 E3.47122
G1 X98.477 Y138.981 E3.47617
G1 X99.126 Y138.717 E3.48111
G1 X99.802 Y138.529 E3.48606
G1 X100.494 Y138.418 E3.491
G1 X101.114 Y138.387 E3.49538
G1 X108.886 Y138.387 E3.5502
G1 X109.586 Y138.427 E3.55515
G1 X110.277 Y138.546 E3.5601
G1 X110.95 Y138.744 E3.56504
G1 X111.596 Y139.016 E3.56999
G1 X112.207 Y139.36 E3.57493
G1 X112.774 Y139.772 E3.57988
G1 X113.235 Y140.188 E3.58426
G1 X113.312 Y140.265 E3.58503
G1 X113.778 Y140.789 E3.58997
G1 X114.183 Y141.361 E3.59492
G1 X114.519 Y141.977 E3.59987
G1 X114.783 Y142.626 E3.60481
G1 X114.971 Y143.302 E3.60976
G1 X115.082 Y143.994 E3.6147
G1 X115.113 Y144.614 E3.61908
G1 X115.113 Y152.386 E3.6739
G1 X115.073 Y153.086 E3.67885
G1 X114.954 Y153.777 E3.6838
G1 X114.756 Y154.45 E3.68874
G1 X114.484 Y155.096 E3.69369
G1 X114.14 Y155.707 E3.69864
G1 X113.728 Y156.274 E3.70358
G1 X113.312 Y156.735 E3.70796
G1 X113.235 Y156.812 E3.70873
G1 X112.711 Y157.278 E3.71367
G1 X112.139 Y157.683 E3.71862
G1 X111.523 Y158.019 E3.72357
G1 X110.874 Y158.283 E3.72851
G1 X110.198 Y158.471 E3.73346
G1 X109.551 Y158.575 E3.73808
G0 F1890 X109.506 Y158.582
G0 X108.886 Y158.613
G0 F8400 X108.886 Y158.313
G1 F1200 E3.74278
G1 F2100 X101.114 Y158.313 E3.7976
G1 X100.431 Y158.273 E3.80243
G1 X99.758 Y158.154 E3.80725
G1 X99.103 Y157.957 E3.81207
G1 X98.476 Y157.684 E3.8169
G1 X97.885 Y157.341 E3.82172
G1 X97.338 Y156.931 E3.82654
G1 X96.977 Y156.6 E3.83
G1 X96.9 Y156.523 E3.83076
G1 X96.446 Y156.012 E3.83559
G1 X96.054 Y155.451 E3.84041
G1 X95.731 Y154.849 E3.84523
G1 X95.48 Y154.213 E3.85006
G1 X95.304 Y153.552 E3.85488
G1 X95.207 Y152.875 E3.8597
G1 X95.187 Y152.386 E3.86316
G1 X95.187 Y144.614 E3.91798
G1 X95.227 Y143.931 E3.92281
G1 X95.346 Y143.258 E3.92763
G1 X95.543 Y142.603 E3.93245
G1 X95.816 Y141.976 E3.93728
G1 X96.159 Y141.385 E3.9421
G1 X96.569 Y140.838 E3.94692
G1 X96.9 Y140.477 E3.95037
G1 X96.977 Y140.4 E3.95114
G1 X97.488 Y139.946 E3.95596
G1 X98.049 Y139.554 E3.96079
G1 X98.651 Y139.231 E3.96561
G1 X99.287 Y138.98 E3.97043
