;FLAVOR:Marlin
;TIME:669
;Filament used: 0.0470288m
;Layer height: 0.08
;Generated with Cura_SteamEngine 2.0.0
T0
M190 S65
M104 S220
M109 S220
M82 ;absolute extrusion mode
;Sigma ProGen 2.2.0 (Build 22DI1226)

G21          ;metric values
G90          ;absolute positioning
M204 S2000 ;set default acceleration
M205 X15 Y15 ;set default jerk
M107         ;start with the fan off
G28 X0 Y0    ;move X/Y to min endstops
G28 Z0       ;move Z to min endstops
G1 Z5 F200   ;safety Z axis movement
T1           ;switch to the right extruder
G92 E0       ;zero the extruded length
T0           ;switch to the left extruder
G92 E0       ;zero the extruded length
M108 P1      ;enable layer fan for the idle extruder

G4 P1
G4 P2
G4 P3

;LAYER_COUNT:37
;LAYER:0
M107
M204 S1075
M205 X11.25 Y11.25
G0 F8400 X109.386 Y160.913 Z0.15
;TYPE:SKIRT
G1 F2100 X100.614 Y160.913 E0.06188
G1 X99.818 Y160.873 E0.0675
G1 X99.03 Y160.754 E0.07312
G1 X98.257 Y160.556 E0.07875
G1 X97.509 Y160.281 E0.08437
G1 X96.791 Y159.934 E0.09
G1 X96.112 Y159.516 E0.09562
G1 X95.479 Y159.032 E0.10124
G1 X94.993 Y158.584 E0.1059
G1 X94.916 Y158.507 E0.10667
G1 X94.381 Y157.916 E0.1123
G1 X93.908 Y157.274 E0.11792
G1 X93.502 Y156.588 E0.12354
G1 X93.166 Y155.865 E0.12917
G1 X92.905 Y155.112 E0.13479
G1 X92.72 Y154.336 E0.14042
G1 X92.614 Y153.546 E0.14604
G1 X92.587 Y152.886 E0.1507
G1 X92.587 Y144.114 E0.21258
G1 X92.627 Y143.318 E0.2182
G1 X92.746 Y142.53 E0.22382
G1 X92.944 Y141.757 E0.22945
G1 X93.219 Y141.009 E0.23507
G1 X93.566 Y140.291 E0.2407
G1 X93.984 Y139.612 E0.24632
G1 X94.468 Y138.979 E0.25194
G1 X94.916 Y138.493 E0.2566
G1 X94.993 Y138.416 E0.25737
G1 X95.584 Y137.881 E0.26299
G1 X96.226 Y137.408 E0.26862
G1 X96.912 Y137.002 E0.27424
G1 X97.635 Y136.666 E0.27987
G1 X98.388 Y136.405 E0.28549
G1 X99.164 Y136.22 E0.29112
G1 X99.954 Y136.114 E0.29674
G1 X100.614 Y136.087 E0.3014
G1 X109.386 Y136.087 E0.36327
G1 X110.182 Y136.127 E0.3689
G1 X110.97 Y136.246 E0.37452
G1 X111.743 Y136.444 E0.38015
G1 X112.491 Y136.719 E0.38577
G1 X113.209 Y137.066 E0.39139
G1 X113.888 Y137.484 E0.39702
G1 X114.521 Y137.968 E0.40264
G1 X115.007 Y138.416 E0.4073
G1 X115.084 Y138.493 E0.40807
G1 X115.619 Y139.084 E0.41369
G1 X116.092 Y139.726 E0.41932
G1 X116.498 Y140.412 E0.42494
G1 X116.834 Y141.135 E0.43057
G1 X117.095 Y141.888 E0.43619
G1 X117.28 Y142.664 E0.44181
G1 X117.386 Y143.454 E0.44744
G1 X117.413 Y144.114 E0.4521
G1 X117.413 Y152.886 E0.51397
G1 X117.373 Y153.682 E0.5196
G1 X117.254 Y154.47 E0.52522
G1 X117.056 Y155.243 E0.53085
G1 X116.781 Y155.991 E0.53647
G1 X116.434 Y156.709 E0.54209
G1 X116.016 Y157.388 E0.54772
G1 X115.532 Y158.021 E0.55334
G1 X115.084 Y158.507 E0.558
G1 X115.007 Y158.584 E0.55877
G1 X114.416 Y159.119 E0.56439
G1 X113.774 Y159.592 E0.57002
G1 X113.088 Y159.998 E0.57564
G1 X112.365 Y160.334 E0.58126
G1 X111.612 Y160.595 E0.58689
G1 X110.836 Y160.78 E0.59251
G1 X110.051 Y160.886 E0.5981
G0 F1890 X110.046 Y160.886
G0 X109.386 Y160.913
G0 F8400 X109.386 Y160.613
G1 F1200 E0.6028
G1 F2100 X100.614 Y160.613 E0.66468
G1 X99.833 Y160.573 E0.67019
G1 X99.06 Y160.454 E0.67571
G1 X98.303 Y160.256 E0.68123
G1 X97.571 Y159.982 E0.68674
G1 X96.87 Y159.634 E0.69226
G1 X96.209 Y159.217 E0.69778
G1 X95.593 Y158.735 E0.70329
G1 X95.205 Y158.372 E0.70704
G1 X95.128 Y158.295 E0.70781
G1 X94.604 Y157.715 E0.71332
G1 X94.142 Y157.084 E0.71884
G1 X93.746 Y156.409 E0.72436
G1 X93.422 Y155.697 E0.72988
G1 X93.172 Y154.956 E0.73539
G1 X93 Y154.194 E0.7409
G1 X92.905 Y153.417 E0.74643
G1 X92.887 Y152.886 E0.75017
G1 X92.887 Y144.114 E0.81205
G1 X92.927 Y143.333 E0.81757
G1 X93.046 Y142.56 E0.82308
G1 X93.244 Y141.803 E0.8286
G1 X93.518 Y141.071 E0.83412
G1 X93.866 Y140.37 E0.83964
G1 X94.283 Y139.709 E0.84515
G1 X94.765 Y139.093 E0.85067
G1 X95.128 Y138.705 E0.85442
G1 X95.205 Y138.628 E0.85518
G1 X95.785 Y138.104 E0.8607
G1 X96.416 Y137.642 E0.86621
G1 X97.091 Y137.246 E0.87173
G1 X97.803 Y136.922 E0.87725
G1 X98.544 Y136.672 E0.88277
G1 X99.306 Y136.5 E0.88828
G1 X100.083 Y136.405 E0.8938
G1 X100.614 Y136.387 E0.89755
G1 X109.386 Y136.387 E0.95943
G1 X110.167 Y136.427 E0.96494
G1 X110.94 Y136.546 E0.97046
G1 X111.697 Y136.744 E0.97598
G1 X112.429 Y137.018 E0.98149
G1 X113.13 Y137.366 E0.98701
G1 X113.791 Y137.783 E0.99253
G1 X114.407 Y138.265 E0.99804
G1 X114.795 Y138.628 E1.00179
G1 X114.872 Y138.705 E1.00256
G1 X115.396 Y139.285 E1.00807
G1 X115.858 Y139.916 E1.01359
G1 X116.254 Y140.591 E1.01911
G1 X116.578 Y141.303 E1.02463
G1 X116.828 Y142.044 E1.03014
G1 X117 Y142.806 E1.03566
G1 X117.095 Y143.583 E1.04118
G1 X117.113 Y144.114 E1.04492
G1 X117.113 Y152.886 E1.1068
G1 X117.073 Y153.667 E1.11232
G1 X116.954 Y154.44 E1.11784
G1 X116.756 Y155.197 E1.12335
G1 X116.482 Y155.929 E1.12887
G1 X116.134 Y156.63 E1.13439
G1 X115.717 Y157.291 E1.1399
G1 X115.235 Y157.907 E1.14542
G1 X114.872 Y158.295 E1.14917
G1 X114.795 Y158.372 E1.14994
G1 X114.215 Y158.896 E1.15545
G1 X113.584 Y159.358 E1.16097
G1 X112.909 Y159.754 E1.16649
G1 X112.197 Y160.078 E1.172
G1 X111.456 Y160.328 E1.17752
G1 X110.694 Y160.5 E1.18303
G1 X110.051 Y160.579 E1.1876
G0 F1890 X109.917 Y160.595
G0 X109.386 Y160.613
G0 F8400 X109.386 Y160.313
G1 F1200 E1.1923
G1 F2100 X100.614 Y160.313 E1.25418
G1 X99.848 Y160.273 E1.25959
G1 X99.091 Y160.154 E1.26499
G1 X98.351 Y159.956 E1.2704
G1 X97.635 Y159.682 E1.2758
G1 X96.951 Y159.335 E1.28121
G1 X96.307 Y158.919 E1.28662
G1 X95.71 Y158.438 E1.29203
G1 X95.417 Y158.16 E1.29488
G1 X95.34 Y158.083 E1.29565
G1 X94.827 Y157.514 E1.30105
G1 X94.376 Y156.894 E1.30646
G1 X93.992 Y156.23 E1.31187
G1 X93.679 Y155.53 E1.31728
G1 X93.441 Y154.802 E1.32268
G1 X93.28 Y154.052 E1.32809
G1 X93.198 Y153.29 E1.3335
G1 X93.187 Y152.886 E1.33635
G1 X93.187 Y144.114 E1.39823
G1 X93.227 Y143.348 E1.40364
G1 X93.346 Y142.591 E1.40904
G1 X93.544 Y141.851 E1.41445
G1 X93.818 Y141.135 E1.41985
G1 X94.165 Y140.451 E1.42526
G1 X94.581 Y139.807 E1.43067
G1 X95.062 Y139.21 E1.43608
G1 X95.34 Y138.917 E1.43893
G1 X95.417 Y138.84 E1.4397
G1 X95.986 Y138.327 E1.4451
G1 X96.606 Y137.876 E1.45051
G1 X97.27 Y137.492 E1.45592
G1 X97.97 Y137.179 E1.46133
G1 X98.698 Y136.941 E1.46673
G1 X99.448 Y136.78 E1.47214
G1 X100.21 Y136.698 E1.47755
G1 X100.614 Y136.687 E1.4804
G1 X109.386 Y136.687 E1.54228
G1 X110.152 Y136.727 E1.54769
G1 X110.909 Y136.846 E1.55309
G1 X111.649 Y137.044 E1.5585
G1 X112.365 Y137.318 E1.56391
G1 X113.049 Y137.665 E1.56932
G1 X113.693 Y138.081 E1.57472
G1 X114.29 Y138.562 E1.58013
G1 X114.583 Y138.84 E1.58298
G1 X114.66 Y138.917 E1.58375
G1 X115.173 Y139.486 E1.58915
G1 X115.624 Y140.106 E1.59456
G1 X116.008 Y140.77 E1.59997
G1 X116.321 Y141.47 E1.60538
G1 X116.559 Y142.198 E1.61078
G1 X116.72 Y142.948 E1.61619
G1 X116.802 Y143.71 E1.6216
G1 X116.813 Y144.114 E1.62445
G1 X116.813 Y152.886 E1.68633
G1 X116.773 Y153.652 E1.69174
G1 X116.654 Y154.409 E1.69714
G1 X116.456 Y155.149 E1.70255
G1 X116.182 Y155.865 E1.70796
G1 X115.835 Y156.549 E1.71337
G1 X115.419 Y157.193 E1.71877
G1 X114.938 Y157.79 E1.72418
G1 X114.66 Y158.083 E1.72703
G1 X114.583 Y158.16 E1.7278
G1 X114.014 Y158.673 E1.7332
G1 X113.394 Y159.124 E1.73861
G1 X112.73 Y159.508 E1.74402
G1 X112.03 Y159.821 E1.74943
G1 X111.302 Y160.059 E1.75483
G1 X110.552 Y160.22 E1.76025
G1 X110.05 Y160.274 E1.76381
G0 F1890 X109.79 Y160.302
G0 X109.386 Y160.313
G0 F8400 X109.386 Y160.013
G1 F1200 E1.7685
G1 F2100 X100.614 Y160.013 E1.83038
G1 X99.864 Y159.973 E1.83568
G1 X99.123 Y159.854 E1.84097
G1 X98.399 Y159.656 E1.84627
G1 X97.7 Y159.382 E1.85156
G1 X97.034 Y159.036 E1.85686
G1 X96.408 Y158.621 E1.86216
G1 X95.629 Y157.948 E1.86942
G1 X95.552 Y157.871 E1.87019
G1 X95.05 Y157.313 E1.87548
G1 X94.61 Y156.704 E1.88078
G1 X94.238 Y156.052 E1.88608
G1 X93.937 Y155.365 E1.89137
G1 X93.711 Y154.649 E1.89666
G1 X93.562 Y153.913 E1.90196
G1 X93.487 Y152.886 E1.90922
G1 X93.487 Y144.114 E1.9711
G1 X93.527 Y143.364 E1.9764
G1 X93.646 Y142.623 E1.98169
G1 X93.844 Y141.899 E1.98699
G1 X94.118 Y141.2 E1.99228
G1 X94.464 Y140.534 E1.99758
G1 X94.879 Y139.908 E2.00288
G1 X95.552 Y139.129 E2.01014
G1 X95.629 Y139.052 E2.01091
G1 X96.187 Y138.55 E2.0162
G1 X96.796 Y138.11 E2.0215
G1 X97.448 Y137.738 E2.0268
G1 X98.135 Y137.437 E2.03209
G1 X98.851 Y137.211 E2.03738
G1 X99.587 Y137.062 E2.04268
G1 X100.614 Y136.987 E2.04994
G1 X109.386 Y136.987 E2.11182
G1 X110.136 Y137.027 E2.11712
G1 X110.877 Y137.146 E2.12241
G1 X111.601 Y137.344 E2.12771
G1 X112.3 Y137.618 E2.133
G1 X112.966 Y137.964 E2.1383
G1 X113.592 Y138.379 E2.1436
G1 X114.371 Y139.052 E2.15086
G1 X114.448 Y139.129 E2.15162
G1 X114.95 Y139.687 E2.15692
G1 X115.39 Y140.296 E2.16222
G1 X115.762 Y140.948 E2.16751
G1 X116.063 Y141.635 E2.17281
G1 X116.289 Y142.351 E2.1781
G1 X116.438 Y143.087 E2.1834
G1 X116.513 Y144.114 E2.19066
G1 X116.513 Y152.886 E2.25254
G1 X116.473 Y153.636 E2.25784
G1 X116.354 Y154.377 E2.26313
G1 X116.156 Y155.101 E2.26843
G1 X115.882 Y155.8 E2.27372
G1 X115.536 Y156.466 E2.27902
G1 X115.121 Y157.092 E2.28431
G1 X114.448 Y157.871 E2.29158
G1 X114.371 Y157.948 E2.29234
G1 X113.813 Y158.45 E2.29764
G1 X113.204 Y158.89 E2.30294
G1 X112.552 Y159.262 E2.30823
G1 X111.865 Y159.563 E2.31352
G1 X111.149 Y159.789 E2.31882
G1 X110.413 Y159.938 E2.32412
G1 X110.05 Y159.965 E2.32669
G0 F1890 X109.386 Y160.013
G0 F8400 X109.386 Y159.713
G1 F1200 E2.33138
G1 F2100 X100.614 Y159.713 E2.39326
G1 X99.881 Y159.673 E2.39844
G1 X99.156 Y159.554 E2.40362
G1 X98.448 Y159.356 E2.40881
G1 X97.766 Y159.083 E2.41399
G1 X97.118 Y158.737 E2.41917
G1 X96.511 Y158.323 E2.42435
G1 X95.841 Y157.736 E2.43064
G1 X95.764 Y157.659 E2.43141
G1 X95.274 Y157.112 E2.43659
G1 X94.846 Y156.515 E2.44177
G1 X94.485 Y155.875 E2.44695
G1 X94.196 Y155.2 E2.45213
G1 X93.982 Y154.497 E2.45731
G1 X93.846 Y153.775 E2.4625
G1 X93.787 Y152.886 E2.46878
G1 X93.787 Y144.114 E2.53066
G1 X93.827 Y143.381 E2.53584
G1 X93.946 Y142.656 E2.54102
G1 X94.144 Y141.948 E2.5462
G1 X94.417 Y141.266 E2.55139
G1 X94.763 Y140.618 E2.55657
G1 X95.177 Y140.011 E2.56175
G1 X95.764 Y139.341 E2.56803
G1 X95.841 Y139.264 E2.5688
G1 X96.388 Y138.774 E2.57398
G1 X96.985 Y138.346 E2.57916
G1 X97.625 Y137.985 E2.58435
G1 X98.3 Y137.696 E2.58953
G1 X99.003 Y137.482 E2.59471
G1 X99.725 Y137.346 E2.59989
G1 X100.614 Y137.287 E2.60618
G1 X109.386 Y137.287 E2.66806
G1 X110.119 Y137.327 E2.67323
G1 X110.844 Y137.446 E2.67842
G1 X111.552 Y137.644 E2.6836
G1 X112.234 Y137.917 E2.68878
G1 X112.882 Y138.263 E2.69397
G1 X113.489 Y138.677 E2.69915
G1 X114.159 Y139.264 E2.70543
G1 X114.236 Y139.341 E2.7062
G1 X114.726 Y139.888 E2.71138
G1 X115.154 Y140.485 E2.71656
G1 X115.515 Y141.125 E2.72175
G1 X115.804 Y141.8 E2.72692
G1 X116.018 Y142.503 E2.73211
G1 X116.154 Y143.225 E2.73729
G1 X116.213 Y144.114 E2.74358
G1 X116.213 Y152.886 E2.80545
G1 X116.173 Y153.619 E2.81063
G1 X116.054 Y154.344 E2.81581
G1 X115.856 Y155.052 E2.821
G1 X115.583 Y155.734 E2.82618
G1 X115.237 Y156.382 E2.83136
G1 X114.823 Y156.989 E2.83655
G1 X114.236 Y157.659 E2.84283
G1 X114.159 Y157.736 E2.8436
G1 X113.612 Y158.226 E2.84878
G1 X113.015 Y158.654 E2.85396
G1 X112.375 Y159.015 E2.85914
G1 X111.7 Y159.304 E2.86432
G1 X110.997 Y159.518 E2.86951
G1 X110.275 Y159.654 E2.87469
G1 X110.051 Y159.669 E2.87627
G0 F1890 X109.386 Y159.713
G0 F8400 X109.386 Y159.413
G1 F1200 E2.88097
G1 F2100 X100.614 Y159.413 E2.94285
G1 X99.897 Y159.373 E2.94791
G1 X99.189 Y159.254 E2.95298
G1 X98.499 Y159.056 E2.95804
G1 X97.834 Y158.783 E2.96311
G1 X97.205 Y158.438 E2.96817
G1 X96.617 Y158.025 E2.97324
G1 X96.053 Y157.524 E2.97856
G1 X95.976 Y157.447 E2.97933
G1 X95.497 Y156.912 E2.9844
G1 X95.081 Y156.327 E2.98946
G1 X94.733 Y155.699 E2.99452
G1 X94.456 Y155.036 E2.99959
G1 X94.255 Y154.347 E3.00465
G1 X94.131 Y153.64 E3.00972
G1 X94.087 Y152.886 E3.01505
G1 X94.087 Y144.114 E3.07692
G1 X94.127 Y143.397 E3.08199
G1 X94.246 Y142.689 E3.08705
G1 X94.444 Y141.999 E3.09212
G1 X94.717 Y141.334 E3.09719
G1 X95.062 Y140.705 E3.10225
G1 X95.475 Y140.117 E3.10732
G1 X95.976 Y139.553 E3.11264
G1 X96.053 Y139.476 E3.11341
G1 X96.588 Y138.997 E3.11847
G1 X97.173 Y138.581 E3.12354
G1 X97.801 Y138.233 E3.1286
G1 X98.464 Y137.956 E3.13367
G1 X99.153 Y137.755 E3.13873
G1 X99.86 Y137.631 E3.14379
G1 X100.614 Y137.587 E3.14912
G1 X109.386 Y137.587 E3.211
G1 X110.103 Y137.627 E3.21607
G1 X110.811 Y137.746 E3.22113
G1 X111.501 Y137.944 E3.22619
G1 X112.166 Y138.217 E3.23126
G1 X112.795 Y138.562 E3.23632
G1 X113.383 Y138.975 E3.24139
G1 X113.947 Y139.476 E3.24671
G1 X114.024 Y139.553 E3.24748
G1 X114.503 Y140.088 E3.25255
G1 X114.919 Y140.673 E3.25761
G1 X115.267 Y141.301 E3.26268
G1 X115.544 Y141.964 E3.26774
G1 X115.745 Y142.653 E3.27281
G1 X115.869 Y143.36 E3.27787
G1 X115.913 Y144.114 E3.2832
G1 X115.913 Y152.886 E3.34508
G1 X115.873 Y153.603 E3.35014
G1 X115.754 Y154.311 E3.35521
G1 X115.556 Y155.001 E3.36027
G1 X115.283 Y155.666 E3.36534
G1 X114.938 Y156.295 E3.3704
G1 X114.525 Y156.883 E3.37547
G1 X114.024 Y157.447 E3.38079
G1 X113.947 Y157.524 E3.38156
G1 X113.412 Y158.003 E3.38662
G1 X112.827 Y158.419 E3.39169
G1 X112.199 Y158.767 E3.39675
G1 X111.536 Y159.044 E3.40182
G1 X110.847 Y159.245 E3.40688
G1 X110.14 Y159.369 E3.41195
G1 X110.051 Y159.375 E3.41258
G0 F1890 X109.386 Y159.413
G0 F8400 X109.386 Y159.113
G1 F1200 E3.41727
G1 F2100 X100.614 Y159.113 E3.47915
G1 X99.914 Y159.073 E3.4841
G1 X99.223 Y158.954 E3.48904
G1 X98.55 Y158.756 E3.49399
G1 X97.904 Y158.484 E3.49894
G1 X97.293 Y158.14 E3.50388
G1 X96.726 Y157.728 E3.50883
G1 X96.265 Y157.312 E3.51321
G1 X96.188 Y157.235 E3.51397
G1 X95.722 Y156.711 E3.51892
G1 X95.317 Y156.139 E3.52386
G1 X94.981 Y155.523 E3.52881
G1 X94.717 Y154.874 E3.53376
G1 X94.529 Y154.198 E3.53871
G1 X94.418 Y153.506 E3.54365
G1 X94.387 Y152.886 E3.54803
G1 X94.387 Y144.114 E3.60991
G1 X94.427 Y143.414 E3.61485
G1 X94.546 Y142.723 E3.6198
G1 X94.744 Y142.05 E3.62475
G1 X95.016 Y141.404 E3.62969
G1 X95.36 Y140.793 E3.63464
G1 X95.772 Y140.226 E3.63958
G1 X96.188 Y139.765 E3.64396
G1 X96.265 Y139.688 E3.64473
G1 X96.789 Y139.222 E3.64968
G1 X97.361 Y138.817 E3.65462
G1 X97.977 Y138.481 E3.65957
G1 X98.626 Y138.217 E3.66451
G1 X99.302 Y138.029 E3.66946
G1 X99.994 Y137.918 E3.6744
G1 X100.614 Y137.887 E3.67878
G1 X109.386 Y137.887 E3.74066
G1 X110.086 Y137.927 E3.74561
G1 X110.777 Y138.046 E3.75055
G1 X111.45 Y138.244 E3.7555
G1 X112.096 Y138.516 E3.76045
G1 X112.707 Y138.86 E3.76539
G1 X113.274 Y139.272 E3.77034
G1 X113.735 Y139.688 E3.77472
G1 X113.812 Y139.765 E3.77548
G1 X114.278 Y140.289 E3.78043
G1 X114.683 Y140.861 E3.78537
G1 X115.019 Y141.477 E3.79032
G1 X115.283 Y142.126 E3.79527
G1 X115.471 Y142.802 E3.80022
G1 X115.582 Y143.494 E3.80516
G1 X115.613 Y144.114 E3.80954
G1 X115.613 Y152.886 E3.87142
G1 X115.573 Y153.586 E3.87636
G1 X115.454 Y154.277 E3.88131
G1 X115.256 Y154.95 E3.88626
G1 X114.984 Y155.596 E3.8912
G1 X114.64 Y156.207 E3.89615
G1 X114.228 Y156.774 E3.90109
G1 X113.812 Y157.235 E3.90547
G1 X113.735 Y157.312 E3.90624
G1 X113.211 Y157.778 E3.91118
G1 X112.639 Y158.183 E3.91613
G1 X112.023 Y158.519 E3.92108
G1 X111.374 Y158.783 E3.92602
G1 X110.698 Y158.971 E3.93097
G1 X110.051 Y159.075 E3.93559
G0 F1890 X110.006 Y159.082
G0 X109.386 Y159.113
G0 F8400 X109.386 Y158.813
G1 F1200 E3.94029
G1 F2100 X100.614 Y158.813 E4.00217
G1 X99.931 Y158.773 E4.00699
G1 X99.258 Y158.654 E4.01181
G1 X98.603 Y158.457 E4.01664
G1 X97.976 Y158.184 E4.02146
G1 X97.385 Y157.841 E4.02628
G1 X96.838 Y157.431 E4.03111
G1 X96.477 Y157.1 E4.03456
G1 X96.4 Y157.023 E4.03533
G1 X95.946 Y156.512 E4.04015
G1 X95.554 Y155.951 E4.04498
G1 X95.231 Y155.349 E4.0498
G1 X94.98 Y154.713 E4.05462
G1 X94.804 Y154.052 E4.05945
G1 X94.707 Y153.375 E4.06427
G1 X94.687 Y152.886 E4.06772
G1 X94.687 Y144.114 E4.1296
G1 X94.727 Y143.431 E4.13443
G1 X94.846 Y142.758 E4.13925
G1 X95.043 Y142.103 E4.14407
G1 X95.316 Y141.476 E4.1489
G1 X95.659 Y140.885 E4.15372
G1 X96.069 Y140.338 E4.15854
G1 X96.4 Y139.977 E4.16199
G1 X96.477 Y139.9 E4.16276
G1 X96.988 Y139.446 E4.16758
G1 X97.549 Y139.054 E4.17241
G1 X98.151 Y138.731 E4.17723
G1 X98.787 Y138.48 E4.18205
G1 X99.448 Y138.304 E4.18688
